X:2025 
T:We happy heardsmen here
C:George Moore from William Duke 
O:Isle of Man
S:Traditional carol 
Z:Clague collection
B:Kiaull Vannin #25 
L:1/4
M:4/4 
K:D 
d|cBAG|F3 G|EA FE|D3 A|Bc d/>c/d/>e/|d3 A|
Bc d/>c/d/>e/|e3 f|ed cB/c/|e3 A|BB cc|d3||d3 A|B2 c2|d3|| 
